report_00007_2020-12-11T15:55:29.892Z/cumulative-layout-shift/comparison/line/8_vs_9.svg

<svg width="640" height="500" xmlns="http://www.w3.org/2000/svg" xmlns:xlink="http://www.w3.org/1999/xlink"><path fill="#fff" d="M0 0h640v500H0z"/><defs><path id="d" stroke-width=".222" stroke="currentColor" d="M-1-1h2v2h-2z"/><path id="b" stroke-width=".222" stroke="currentColor" d="M0-1.33l-1.33 2h2.66z"/><path id="f" stroke-width=".222" stroke="currentColor" d="M0 1.33L1.265.411.782-1.067l-1.564-.009-.483 1.487z"/><use xlink:href="#b" id="c" stroke="currentColor" transform="rotate(180)"/><use xlink:href="#d" id="e" stroke="currentColor" transform="rotate(45)"/><circle id="a" stroke-width=".222" stroke="currentColor" cx="0" cy="0" r="1"/></defs><g fill="none" color="#000" stroke="currentColor"><path stroke="#000" d="M53.9 379.7h9m552.1 0h-9"/><text transform="translate(45.6 383.6)" stroke="none" fill="#000" font-family="Arial" font-size="12" text-anchor="end"><tspan>0.2</tspan></text></g><g fill="none" color="#000" stroke="currentColor"><path stroke="#000" d="M53.9 303.6h9m552.1 0h-9"/><text transform="translate(45.6 307.5)" stroke="none" fill="#000" font-family="Arial" font-size="12" text-anchor="end"><tspan>0.4</tspan></text></g><g fill="none" color="#000" stroke="currentColor"><path stroke="#000" d="M53.9 227.4h9m552.1 0h-9"/><text transform="translate(45.6 231.3)" stroke="none" fill="#000" font-family="Arial" font-size="12" text-anchor="end"><tspan>0.6</tspan></text></g><g fill="none" color="#000" stroke="currentColor"><path stroke="#000" d="M53.9 151.3h9m552.1 0h-9"/><text transform="translate(45.6 155.2)" stroke="none" fill="#000" font-family="Arial" font-size="12" text-anchor="end"><tspan>0.8</tspan></text></g><g fill="none" color="#000" stroke="currentColor"><path stroke="#000" d="M53.9 75.1h9m552.1 0h-9"/><text transform="translate(45.6 79)" stroke="none" fill="#000" font-family="Arial" font-size="12" text-anchor="end"><tspan>1</tspan></text></g><g fill="none" color="#000" stroke="currentColor"><path stroke="#000" d="M53.9 428v-9m0-400.9v9"/><text transform="translate(53.9 449.9)" stroke="none" fill="#000" font-family="Arial" font-size="12" text-anchor="middle"><tspan>0</tspan></text></g><g fill="none" color="#000" stroke="currentColor"><path stroke="#000" d="M110.6 428v-9m0-400.9v9"/><text transform="translate(110.6 449.9)" stroke="none" fill="#000" font-family="Arial" font-size="12" text-anchor="middle"><tspan>10</tspan></text></g><g fill="none" color="#000" stroke="currentColor"><path stroke="#000" d="M167.3 428v-9m0-400.9v9"/><text transform="translate(167.3 449.9)" stroke="none" fill="#000" font-family="Arial" font-size="12" text-anchor="middle"><tspan>20</tspan></text></g><g fill="none" color="#000" stroke="currentColor"><path stroke="#000" d="M223.9 428v-9m0-400.9v9"/><text transform="translate(223.9 449.9)" stroke="none" fill="#000" font-family="Arial" font-size="12" text-anchor="middle"><tspan>30</tspan></text></g><g fill="none" color="#000" stroke="currentColor"><path stroke="#000" d="M280.6 428v-9m0-400.9v9"/><text transform="translate(280.6 449.9)" stroke="none" fill="#000" font-family="Arial" font-size="12" text-anchor="middle"><tspan>40</tspan></text></g><g fill="none" color="#000" stroke="currentColor"><path stroke="#000" d="M337.3 428v-9m0-400.9v9"/><text transform="translate(337.3 449.9)" stroke="none" fill="#000" font-family="Arial" font-size="12" text-anchor="middle"><tspan>50</tspan></text></g><g fill="none" color="#000" stroke="currentColor"><path stroke="#000" d="M394 428v-9m0-400.9v9"/><text transform="translate(394 449.9)" stroke="none" fill="#000" font-family="Arial" font-size="12" text-anchor="middle"><tspan>60</tspan></text></g><g fill="none" color="#000" stroke="currentColor"><path stroke="#000" d="M450.6 428v-9m0-400.9v9"/><text transform="translate(450.6 449.9)" stroke="none" fill="#000" font-family="Arial" font-size="12" text-anchor="middle"><tspan>70</tspan></text></g><g fill="none" color="#000" stroke="currentColor"><path stroke="#000" d="M507.3 428v-9m0-400.9v9"/><text transform="translate(507.3 449.9)" stroke="none" fill="#000" font-family="Arial" font-size="12" text-anchor="middle"><tspan>80</tspan></text></g><g fill="none" color="#000" stroke="currentColor"><path stroke="#000" d="M564 428v-9m0-400.9v9"/><text transform="translate(564 449.9)" stroke="none" fill="#000" font-family="Arial" font-size="12" text-anchor="middle"><tspan>90</tspan></text></g><path stroke="#000" d="M53.9 18.1V428H615V18.1H53.9z" fill="none" color="#000"/><text transform="translate(275.6 467.9)" stroke="none" fill="#000" font-family="Arial" font-size="12" text-anchor="end" color="#000"><tspan>pages+cached+noexternal+noimg</tspan></text><path stroke="#9400D3" d="M283.9 464h42.2M53.9 311.3l5.7 108.8 5.6-44 5.7 44 5.7-108.8 5.6 72 5.7-11.5 5.7 48.3 5.6-36.8 5.7-72 5.7 72 5.6 36.8 5.7-36.8 5.7-48.3 5.6 85.1 5.7-36.8h11.4l5.6-72 5.7 23.7 5.7 48.3h5.6l5.7-7.2 5.7 7.2 5.6 36.8 5.7-36.8h5.7l5.6-11.5 5.7 11.5h5.7l5.6-72 5.7 64.8 5.7 44 5.6-36.8 5.7-11.5 5.7 48.3 5.6-44 5.7-64.8 5.7 60.5 5.6 11.5 5.7-7.2h5.7l5.6 7.2 5.7-72 5.7 23.7 5.6 52.6 5.7-4.3 5.7-7.2 5.6 7.2h11.4l5.7 36.8 5.6-85.1 5.7 36.8 5.7 11.5 5.6-7.2h5.7l5.7 7.2 5.6 36.8 5.7-36.8 5.7-72 5.6 64.8H411l5.6 7.2h5.7l5.7-7.2 5.6 44L439.3 26l5.7 309 5.6-23.7 5.7 72 5.7-7.2 5.6 11.5 5.7-4.3 5.7 36.8 5.6-108.8 5.7 72 5.7-72 5.6 108.8 5.7-36.8 5.7-11.5 5.6 11.5h5.7l5.7-7.2h22.7l5.6 44 5.7-108.8 5.7 72 5.6 4.3 5.7-76.3 5.7 72 5.6-11.5 5.7 48.3 5.7-108.8 5.6 72 5.7-7.2" fill="none" color="#000"/><text transform="translate(275.6 485.9)" stroke="none" fill="#000" font-family="Arial" font-size="12" text-anchor="end" color="#000"><tspan>pages+cached+noexternal+nocss</tspan></text><path stroke="#009E73" d="M283.9 482h42.2M53.9 362.4H110.6l5.6-59.2 5.7 59.2h28.4l5.6-198.7 5.7 139.5 5.7 59.2H252.3l5.6-198.7 5.7 198.7H291.9l5.7-59.2 5.7 59.2H484.6l5.7-198.7 5.7 198.7H586.7l5.6-198.7 5.7 198.7h5.7l5.6-198.7 5.7 198.7" fill="none" color="#000"/><text transform="translate(575.1 467.9)" stroke="none" fill="#000" font-family="Arial" font-size="12" text-anchor="end" color="#000"><tspan>score p10=0.1</tspan></text><path stroke="#56B4E9" d="M583.4 464h42.2M53.9 417.8H615" fill="none" color="#000"/><g><text transform="translate(575.1 485.9)" stroke="none" fill="#000" font-family="Arial" font-size="12" text-anchor="end" color="#000"><tspan>score median=0.25</tspan></text><path stroke="#E69F00" d="M583.4 482h42.2M53.9 360.7H615" fill="none" color="#000"/></g><g fill="none" color="#000" stroke="currentColor"><path stroke="#000" d="M53.9 18.1V428H615V18.1H53.9z"/></g></svg>

<?xml version="1.0" encoding="utf-8"  standalone="no"?>
<svg 
 width="640" height="500"
 viewBox="0 0 640 500"
 xmlns="http://www.w3.org/2000/svg"
 xmlns:xlink="http://www.w3.org/1999/xlink"
>

<title>Gnuplot</title>
<desc>Produced by GNUPLOT 5.4 patchlevel 0 </desc>

<g id="gnuplot_canvas">

<rect x="0" y="0" width="640" height="500" fill="#ffffff"/>
<defs>

	<circle id='gpDot' r='0.5' stroke-width='0.5' stroke='currentColor'/>
	<path id='gpPt0' stroke-width='0.222' stroke='currentColor' d='M-1,0 h2 M0,-1 v2'/>
	<path id='gpPt1' stroke-width='0.222' stroke='currentColor' d='M-1,-1 L1,1 M1,-1 L-1,1'/>
	<path id='gpPt2' stroke-width='0.222' stroke='currentColor' d='M-1,0 L1,0 M0,-1 L0,1 M-1,-1 L1,1 M-1,1 L1,-1'/>
	<rect id='gpPt3' stroke-width='0.222' stroke='currentColor' x='-1' y='-1' width='2' height='2'/>
	<rect id='gpPt4' stroke-width='0.222' stroke='currentColor' fill='currentColor' x='-1' y='-1' width='2' height='2'/>
	<circle id='gpPt5' stroke-width='0.222' stroke='currentColor' cx='0' cy='0' r='1'/>
	<use xlink:href='#gpPt5' id='gpPt6' fill='currentColor' stroke='none'/>
	<path id='gpPt7' stroke-width='0.222' stroke='currentColor' d='M0,-1.33 L-1.33,0.67 L1.33,0.67 z'/>
	<use xlink:href='#gpPt7' id='gpPt8' fill='currentColor' stroke='none'/>
	<use xlink:href='#gpPt7' id='gpPt9' stroke='currentColor' transform='rotate(180)'/>
	<use xlink:href='#gpPt9' id='gpPt10' fill='currentColor' stroke='none'/>
	<use xlink:href='#gpPt3' id='gpPt11' stroke='currentColor' transform='rotate(45)'/>
	<use xlink:href='#gpPt11' id='gpPt12' fill='currentColor' stroke='none'/>
	<path id='gpPt13' stroke-width='0.222' stroke='currentColor' d='M0,1.330 L1.265,0.411 L0.782,-1.067 L-0.782,-1.076 L-1.265,0.411 z'/>
	<use xlink:href='#gpPt13' id='gpPt14' fill='currentColor' stroke='none'/>
	<filter id='textbox' filterUnits='objectBoundingBox' x='0' y='0' height='1' width='1'>
	  <feFlood flood-color='#FFFFFF' flood-opacity='1' result='bgnd'/>
	  <feComposite in='SourceGraphic' in2='bgnd' operator='atop'/>
	</filter>
	<filter id='greybox' filterUnits='objectBoundingBox' x='0' y='0' height='1' width='1'>
	  <feFlood flood-color='lightgrey' flood-opacity='1' result='grey'/>
	  <feComposite in='SourceGraphic' in2='grey' operator='atop'/>
	</filter>
</defs>
<g fill="none" color="#FFFFFF" stroke="black" stroke-width="1.00" stroke-linecap="butt" stroke-linejoin="miter">
</g>
<g fill="none" color="black" stroke="currentColor" stroke-width="1.00" stroke-linecap="butt" stroke-linejoin="miter">
	<path stroke='black'  d='M53.9,379.7 L62.9,379.7 M615.0,379.7 L606.0,379.7  '/>	<g transform="translate(45.6,383.6)" stroke="none" fill="black" font-family="Arial" font-size="12.00"  text-anchor="end">
		<text><tspan font-family="Arial" > 0.2</tspan></text>
	</g>
</g>
<g fill="none" color="black" stroke="currentColor" stroke-width="1.00" stroke-linecap="butt" stroke-linejoin="miter">
	<path stroke='black'  d='M53.9,303.6 L62.9,303.6 M615.0,303.6 L606.0,303.6  '/>	<g transform="translate(45.6,307.5)" stroke="none" fill="black" font-family="Arial" font-size="12.00"  text-anchor="end">
		<text><tspan font-family="Arial" > 0.4</tspan></text>
	</g>
</g>
<g fill="none" color="black" stroke="currentColor" stroke-width="1.00" stroke-linecap="butt" stroke-linejoin="miter">
	<path stroke='black'  d='M53.9,227.4 L62.9,227.4 M615.0,227.4 L606.0,227.4  '/>	<g transform="translate(45.6,231.3)" stroke="none" fill="black" font-family="Arial" font-size="12.00"  text-anchor="end">
		<text><tspan font-family="Arial" > 0.6</tspan></text>
	</g>
</g>
<g fill="none" color="black" stroke="currentColor" stroke-width="1.00" stroke-linecap="butt" stroke-linejoin="miter">
	<path stroke='black'  d='M53.9,151.3 L62.9,151.3 M615.0,151.3 L606.0,151.3  '/>	<g transform="translate(45.6,155.2)" stroke="none" fill="black" font-family="Arial" font-size="12.00"  text-anchor="end">
		<text><tspan font-family="Arial" > 0.8</tspan></text>
	</g>
</g>
<g fill="none" color="black" stroke="currentColor" stroke-width="1.00" stroke-linecap="butt" stroke-linejoin="miter">
	<path stroke='black'  d='M53.9,75.1 L62.9,75.1 M615.0,75.1 L606.0,75.1  '/>	<g transform="translate(45.6,79.0)" stroke="none" fill="black" font-family="Arial" font-size="12.00"  text-anchor="end">
		<text><tspan font-family="Arial" > 1</tspan></text>
	</g>
</g>
<g fill="none" color="black" stroke="currentColor" stroke-width="1.00" stroke-linecap="butt" stroke-linejoin="miter">
	<path stroke='black'  d='M53.9,428.0 L53.9,419.0 M53.9,18.1 L53.9,27.1  '/>	<g transform="translate(53.9,449.9)" stroke="none" fill="black" font-family="Arial" font-size="12.00"  text-anchor="middle">
		<text><tspan font-family="Arial" > 0</tspan></text>
	</g>
</g>
<g fill="none" color="black" stroke="currentColor" stroke-width="1.00" stroke-linecap="butt" stroke-linejoin="miter">
	<path stroke='black'  d='M110.6,428.0 L110.6,419.0 M110.6,18.1 L110.6,27.1  '/>	<g transform="translate(110.6,449.9)" stroke="none" fill="black" font-family="Arial" font-size="12.00"  text-anchor="middle">
		<text><tspan font-family="Arial" > 10</tspan></text>
	</g>
</g>
<g fill="none" color="black" stroke="currentColor" stroke-width="1.00" stroke-linecap="butt" stroke-linejoin="miter">
	<path stroke='black'  d='M167.3,428.0 L167.3,419.0 M167.3,18.1 L167.3,27.1  '/>	<g transform="translate(167.3,449.9)" stroke="none" fill="black" font-family="Arial" font-size="12.00"  text-anchor="middle">
		<text><tspan font-family="Arial" > 20</tspan></text>
	</g>
</g>
<g fill="none" color="black" stroke="currentColor" stroke-width="1.00" stroke-linecap="butt" stroke-linejoin="miter">
	<path stroke='black'  d='M223.9,428.0 L223.9,419.0 M223.9,18.1 L223.9,27.1  '/>	<g transform="translate(223.9,449.9)" stroke="none" fill="black" font-family="Arial" font-size="12.00"  text-anchor="middle">
		<text><tspan font-family="Arial" > 30</tspan></text>
	</g>
</g>
<g fill="none" color="black" stroke="currentColor" stroke-width="1.00" stroke-linecap="butt" stroke-linejoin="miter">
	<path stroke='black'  d='M280.6,428.0 L280.6,419.0 M280.6,18.1 L280.6,27.1  '/>	<g transform="translate(280.6,449.9)" stroke="none" fill="black" font-family="Arial" font-size="12.00"  text-anchor="middle">
		<text><tspan font-family="Arial" > 40</tspan></text>
	</g>
</g>
<g fill="none" color="black" stroke="currentColor" stroke-width="1.00" stroke-linecap="butt" stroke-linejoin="miter">
	<path stroke='black'  d='M337.3,428.0 L337.3,419.0 M337.3,18.1 L337.3,27.1  '/>	<g transform="translate(337.3,449.9)" stroke="none" fill="black" font-family="Arial" font-size="12.00"  text-anchor="middle">
		<text><tspan font-family="Arial" > 50</tspan></text>
	</g>
</g>
<g fill="none" color="black" stroke="currentColor" stroke-width="1.00" stroke-linecap="butt" stroke-linejoin="miter">
	<path stroke='black'  d='M394.0,428.0 L394.0,419.0 M394.0,18.1 L394.0,27.1  '/>	<g transform="translate(394.0,449.9)" stroke="none" fill="black" font-family="Arial" font-size="12.00"  text-anchor="middle">
		<text><tspan font-family="Arial" > 60</tspan></text>
	</g>
</g>
<g fill="none" color="black" stroke="currentColor" stroke-width="1.00" stroke-linecap="butt" stroke-linejoin="miter">
	<path stroke='black'  d='M450.6,428.0 L450.6,419.0 M450.6,18.1 L450.6,27.1  '/>	<g transform="translate(450.6,449.9)" stroke="none" fill="black" font-family="Arial" font-size="12.00"  text-anchor="middle">
		<text><tspan font-family="Arial" > 70</tspan></text>
	</g>
</g>
<g fill="none" color="black" stroke="currentColor" stroke-width="1.00" stroke-linecap="butt" stroke-linejoin="miter">
	<path stroke='black'  d='M507.3,428.0 L507.3,419.0 M507.3,18.1 L507.3,27.1  '/>	<g transform="translate(507.3,449.9)" stroke="none" fill="black" font-family="Arial" font-size="12.00"  text-anchor="middle">
		<text><tspan font-family="Arial" > 80</tspan></text>
	</g>
</g>
<g fill="none" color="black" stroke="currentColor" stroke-width="1.00" stroke-linecap="butt" stroke-linejoin="miter">
	<path stroke='black'  d='M564.0,428.0 L564.0,419.0 M564.0,18.1 L564.0,27.1  '/>	<g transform="translate(564.0,449.9)" stroke="none" fill="black" font-family="Arial" font-size="12.00"  text-anchor="middle">
		<text><tspan font-family="Arial" > 90</tspan></text>
	</g>
</g>
<g fill="none" color="black" stroke="currentColor" stroke-width="1.00" stroke-linecap="butt" stroke-linejoin="miter">
</g>
<g fill="none" color="black" stroke="currentColor" stroke-width="1.00" stroke-linecap="butt" stroke-linejoin="miter">
	<path stroke='black'  d='M53.9,18.1 L53.9,428.0 L615.0,428.0 L615.0,18.1 L53.9,18.1 Z  '/></g>
<g fill="none" color="black" stroke="currentColor" stroke-width="1.00" stroke-linecap="butt" stroke-linejoin="miter">
</g>
	<g id="gnuplot_plot_1" ><title>pages+cached+noexternal+noimg</title>
<g fill="none" color="black" stroke="currentColor" stroke-width="1.00" stroke-linecap="butt" stroke-linejoin="miter">
	<g transform="translate(275.6,467.9)" stroke="none" fill="black" font-family="Arial" font-size="12.00"  text-anchor="end">
		<text><tspan font-family="Arial" >pages+cached+noexternal+noimg</tspan></text>
	</g>
</g>
<g fill="none" color="black" stroke="currentColor" stroke-width="1.00" stroke-linecap="butt" stroke-linejoin="miter">
	<path stroke='rgb(148,   0, 211)'  d='M283.9,464.0 L326.1,464.0 M53.9,311.3 L59.6,420.1 L65.2,376.1 L70.9,420.1 L76.6,311.3 L82.2,383.3
		L87.9,371.8 L93.6,420.1 L99.2,383.3 L104.9,311.3 L110.6,383.3 L116.2,420.1 L121.9,383.3 L127.6,335.0
		L133.2,420.1 L138.9,383.3 L144.6,383.3 L150.3,383.3 L155.9,311.3 L161.6,335.0 L167.3,383.3 L172.9,383.3
		L178.6,376.1 L184.3,383.3 L189.9,420.1 L195.6,383.3 L201.3,383.3 L206.9,371.8 L212.6,383.3 L218.3,383.3
		L223.9,311.3 L229.6,376.1 L235.3,420.1 L240.9,383.3 L246.6,371.8 L252.3,420.1 L257.9,376.1 L263.6,311.3
		L269.3,371.8 L274.9,383.3 L280.6,376.1 L286.3,376.1 L291.9,383.3 L297.6,311.3 L303.3,335.0 L308.9,387.6
		L314.6,383.3 L320.3,376.1 L325.9,383.3 L331.6,383.3 L337.3,383.3 L343.0,420.1 L348.6,335.0 L354.3,371.8
		L360.0,383.3 L365.6,376.1 L371.3,376.1 L377.0,383.3 L382.6,420.1 L388.3,383.3 L394.0,311.3 L399.6,376.1
		L405.3,376.1 L411.0,376.1 L416.6,383.3 L422.3,383.3 L428.0,376.1 L433.6,420.1 L439.3,26.0 L445.0,335.0
		L450.6,311.3 L456.3,383.3 L462.0,376.1 L467.6,387.6 L473.3,383.3 L479.0,420.1 L484.6,311.3 L490.3,383.3
		L496.0,311.3 L501.6,420.1 L507.3,383.3 L513.0,371.8 L518.6,383.3 L524.3,383.3 L530.0,376.1 L535.7,376.1
		L541.3,376.1 L547.0,376.1 L552.7,376.1 L558.3,420.1 L564.0,311.3 L569.7,383.3 L575.3,387.6 L581.0,311.3
		L586.7,383.3 L592.3,371.8 L598.0,420.1 L603.7,311.3 L609.3,383.3 L615.0,376.1  '/></g>
	</g>
	<g id="gnuplot_plot_2" ><title>pages+cached+noexternal+nocss</title>
<g fill="none" color="black" stroke="currentColor" stroke-width="1.00" stroke-linecap="butt" stroke-linejoin="miter">
	<g transform="translate(275.6,485.9)" stroke="none" fill="black" font-family="Arial" font-size="12.00"  text-anchor="end">
		<text><tspan font-family="Arial" >pages+cached+noexternal+nocss</tspan></text>
	</g>
</g>
<g fill="none" color="black" stroke="currentColor" stroke-width="1.00" stroke-linecap="butt" stroke-linejoin="miter">
	<path stroke='rgb(  0, 158, 115)'  d='M283.9,482.0 L326.1,482.0 M53.9,362.4 L59.6,362.4 L65.2,362.4 L70.9,362.4 L76.6,362.4 L82.2,362.4
		L87.9,362.4 L93.6,362.4 L99.2,362.4 L104.9,362.4 L110.6,362.4 L116.2,303.2 L121.9,362.4 L127.6,362.4
		L133.2,362.4 L138.9,362.4 L144.6,362.4 L150.3,362.4 L155.9,163.7 L161.6,303.2 L167.3,362.4 L172.9,362.4
		L178.6,362.4 L184.3,362.4 L189.9,362.4 L195.6,362.4 L201.3,362.4 L206.9,362.4 L212.6,362.4 L218.3,362.4
		L223.9,362.4 L229.6,362.4 L235.3,362.4 L240.9,362.4 L246.6,362.4 L252.3,362.4 L257.9,163.7 L263.6,362.4
		L269.3,362.4 L274.9,362.4 L280.6,362.4 L286.3,362.4 L291.9,362.4 L297.6,303.2 L303.3,362.4 L308.9,362.4
		L314.6,362.4 L320.3,362.4 L325.9,362.4 L331.6,362.4 L337.3,362.4 L343.0,362.4 L348.6,362.4 L354.3,362.4
		L360.0,362.4 L365.6,362.4 L371.3,362.4 L377.0,362.4 L382.6,362.4 L388.3,362.4 L394.0,362.4 L399.6,362.4
		L405.3,362.4 L411.0,362.4 L416.6,362.4 L422.3,362.4 L428.0,362.4 L433.6,362.4 L439.3,362.4 L445.0,362.4
		L450.6,362.4 L456.3,362.4 L462.0,362.4 L467.6,362.4 L473.3,362.4 L479.0,362.4 L484.6,362.4 L490.3,163.7
		L496.0,362.4 L501.6,362.4 L507.3,362.4 L513.0,362.4 L518.6,362.4 L524.3,362.4 L530.0,362.4 L535.7,362.4
		L541.3,362.4 L547.0,362.4 L552.7,362.4 L558.3,362.4 L564.0,362.4 L569.7,362.4 L575.3,362.4 L581.0,362.4
		L586.7,362.4 L592.3,163.7 L598.0,362.4 L603.7,362.4 L609.3,163.7 L615.0,362.4  '/></g>
	</g>
	<g id="gnuplot_plot_3" ><title>score p10=0.1</title>
<g fill="none" color="black" stroke="currentColor" stroke-width="1.00" stroke-linecap="butt" stroke-linejoin="miter">
	<g transform="translate(575.1,467.9)" stroke="none" fill="black" font-family="Arial" font-size="12.00"  text-anchor="end">
		<text><tspan font-family="Arial" >score p10=0.1</tspan></text>
	</g>
</g>
<g fill="none" color="black" stroke="currentColor" stroke-width="1.00" stroke-linecap="butt" stroke-linejoin="miter">
	<path stroke='rgb( 86, 180, 233)'  d='M583.4,464.0 L625.6,464.0 M53.9,417.8 L59.6,417.8 L65.2,417.8 L70.9,417.8 L76.6,417.8 L82.2,417.8
		L87.9,417.8 L93.6,417.8 L99.2,417.8 L104.9,417.8 L110.6,417.8 L116.2,417.8 L121.9,417.8 L127.6,417.8
		L133.2,417.8 L138.9,417.8 L144.6,417.8 L150.3,417.8 L155.9,417.8 L161.6,417.8 L167.3,417.8 L172.9,417.8
		L178.6,417.8 L184.3,417.8 L189.9,417.8 L195.6,417.8 L201.3,417.8 L206.9,417.8 L212.6,417.8 L218.3,417.8
		L223.9,417.8 L229.6,417.8 L235.3,417.8 L240.9,417.8 L246.6,417.8 L252.3,417.8 L257.9,417.8 L263.6,417.8
		L269.3,417.8 L274.9,417.8 L280.6,417.8 L286.3,417.8 L291.9,417.8 L297.6,417.8 L303.3,417.8 L308.9,417.8
		L314.6,417.8 L320.3,417.8 L325.9,417.8 L331.6,417.8 L337.3,417.8 L343.0,417.8 L348.6,417.8 L354.3,417.8
		L360.0,417.8 L365.6,417.8 L371.3,417.8 L377.0,417.8 L382.6,417.8 L388.3,417.8 L394.0,417.8 L399.6,417.8
		L405.3,417.8 L411.0,417.8 L416.6,417.8 L422.3,417.8 L428.0,417.8 L433.6,417.8 L439.3,417.8 L445.0,417.8
		L450.6,417.8 L456.3,417.8 L462.0,417.8 L467.6,417.8 L473.3,417.8 L479.0,417.8 L484.6,417.8 L490.3,417.8
		L496.0,417.8 L501.6,417.8 L507.3,417.8 L513.0,417.8 L518.6,417.8 L524.3,417.8 L530.0,417.8 L535.7,417.8
		L541.3,417.8 L547.0,417.8 L552.7,417.8 L558.3,417.8 L564.0,417.8 L569.7,417.8 L575.3,417.8 L581.0,417.8
		L586.7,417.8 L592.3,417.8 L598.0,417.8 L603.7,417.8 L609.3,417.8 L615.0,417.8  '/></g>
	</g>
	<g id="gnuplot_plot_4" ><title>score median=0.25</title>
<g fill="none" color="black" stroke="currentColor" stroke-width="1.00" stroke-linecap="butt" stroke-linejoin="miter">
	<g transform="translate(575.1,485.9)" stroke="none" fill="black" font-family="Arial" font-size="12.00"  text-anchor="end">
		<text><tspan font-family="Arial" >score median=0.25</tspan></text>
	</g>
</g>
<g fill="none" color="black" stroke="currentColor" stroke-width="1.00" stroke-linecap="butt" stroke-linejoin="miter">
	<path stroke='rgb(230, 159,   0)'  d='M583.4,482.0 L625.6,482.0 M53.9,360.7 L59.6,360.7 L65.2,360.7 L70.9,360.7 L76.6,360.7 L82.2,360.7
		L87.9,360.7 L93.6,360.7 L99.2,360.7 L104.9,360.7 L110.6,360.7 L116.2,360.7 L121.9,360.7 L127.6,360.7
		L133.2,360.7 L138.9,360.7 L144.6,360.7 L150.3,360.7 L155.9,360.7 L161.6,360.7 L167.3,360.7 L172.9,360.7
		L178.6,360.7 L184.3,360.7 L189.9,360.7 L195.6,360.7 L201.3,360.7 L206.9,360.7 L212.6,360.7 L218.3,360.7
		L223.9,360.7 L229.6,360.7 L235.3,360.7 L240.9,360.7 L246.6,360.7 L252.3,360.7 L257.9,360.7 L263.6,360.7
		L269.3,360.7 L274.9,360.7 L280.6,360.7 L286.3,360.7 L291.9,360.7 L297.6,360.7 L303.3,360.7 L308.9,360.7
		L314.6,360.7 L320.3,360.7 L325.9,360.7 L331.6,360.7 L337.3,360.7 L343.0,360.7 L348.6,360.7 L354.3,360.7
		L360.0,360.7 L365.6,360.7 L371.3,360.7 L377.0,360.7 L382.6,360.7 L388.3,360.7 L394.0,360.7 L399.6,360.7
		L405.3,360.7 L411.0,360.7 L416.6,360.7 L422.3,360.7 L428.0,360.7 L433.6,360.7 L439.3,360.7 L445.0,360.7
		L450.6,360.7 L456.3,360.7 L462.0,360.7 L467.6,360.7 L473.3,360.7 L479.0,360.7 L484.6,360.7 L490.3,360.7
		L496.0,360.7 L501.6,360.7 L507.3,360.7 L513.0,360.7 L518.6,360.7 L524.3,360.7 L530.0,360.7 L535.7,360.7
		L541.3,360.7 L547.0,360.7 L552.7,360.7 L558.3,360.7 L564.0,360.7 L569.7,360.7 L575.3,360.7 L581.0,360.7
		L586.7,360.7 L592.3,360.7 L598.0,360.7 L603.7,360.7 L609.3,360.7 L615.0,360.7  '/></g>
	</g>
<g fill="none" color="#FFFFFF" stroke="rgb(230, 159,   0)" stroke-width="2.00" stroke-l
